frontend/public/svg/interface/arrow-down.svg

<svg width="165" height="147" viewBox="0 0 165 147" fill="none" xmlns="http://www.w3.org/2000/svg">
<g clip-path="url(#clip0)">
<path d="M163.637 89.6238C163.069 76.0797 162.493 64.252 161.874 53.4653C161.45 46.068 160.845 36.3332 159.921 26.6363C158.579 12.4868 147.141 2.24599 132.106 1.73246C120.978 1.35103 109.654 1.19157 98.6992 1.03745C95.5754 0.994064 92.4034 1.02104 89.3349 1.04694C84.301 1.08903 79.0954 1.13355 74.0022 0.864807C62.433 0.259321 50.1655 0.765566 34.2386 2.51726C23.8773 3.657 16.0815 6.68799 9.69849 12.0564C4.43815 16.4806 1.87404 21.6118 1.86102 27.7443C1.85647 29.7182 1.81668 31.7201 1.74249 33.6927C1.67741 35.4295 1.55707 37.2034 1.44188 38.9201C1.11585 42.5939 1.02896 46.2851 1.18163 49.97C1.27925 51.506 1.37901 53.0423 1.48097 54.5783C2.27103 66.6141 3.08905 79.0566 2.26189 91.3386C1.91957 96.4039 2.01335 101.57 2.10316 106.562L2.12334 107.667C2.27498 116.237 3.53426 123.769 5.97408 130.694C8.60587 138.165 13.7153 142.71 21.161 144.198C25.7677 145.151 30.443 145.74 35.1432 145.958C43.8911 146.314 52.7889 146.512 61.3943 146.703C64.893 146.782 68.3918 146.862 71.8898 146.947H71.9021C72.0193 146.945 72.1325 146.907 72.2275 146.838H74.998C77.3096 146.838 79.6225 146.838 81.9361 146.838L85.6066 146.844C100.098 146.874 115.078 146.903 129.706 144.622C134.806 143.826 140.765 142.715 146.286 140.507C157.364 136.076 163.342 127.908 164.053 116.228C164.508 108.72 164.165 101.163 163.83 93.8544C163.763 92.444 163.699 91.0342 163.637 89.6238ZM11.6723 81.4364C11.4901 73.5975 11.0932 65.1661 10.4222 54.904C9.89184 46.8002 9.56898 36.1162 11.8084 25.2874C11.8606 25.1396 11.8827 24.9829 11.8735 24.8264C11.3568 18.7437 15.7203 16.3614 20.3403 13.8391L20.5003 13.7525C24.9817 11.3046 29.9454 10.4497 34.6448 9.79111C45.3411 8.39112 56.1232 7.74192 66.9112 7.84838C71.4062 7.84838 75.8394 7.92279 80.1874 8.01345C88.0932 8.17923 96.1318 8.28673 103.904 8.39034C110.688 8.481 117.701 8.57509 124.6 8.7072C127.796 8.74586 130.986 9.01719 134.143 9.5192C145.491 11.4004 151.768 18.7427 152.293 30.7514C152.725 40.6088 153.122 50.6319 153.505 60.3281C153.794 67.6074 154.088 74.8862 154.387 82.1656C154.497 84.7903 154.647 87.4557 154.793 90.033C155.022 94.0804 155.259 98.265 155.342 102.378C155.442 107.249 155.171 112.227 154.887 116.909C154.47 123.735 150.478 128.584 143.025 131.321C138.459 132.916 133.741 134.037 128.944 134.666C112.788 137.062 96.2041 136.955 80.1698 136.854L78.0515 136.839C77.2198 136.834 76.3887 136.839 75.557 136.839H74.3732C74.2684 136.839 74.1656 136.864 74.0719 136.911C73.9788 136.958 73.8975 137.026 73.8356 137.109C70.3214 137.02 66.8071 136.934 63.2927 136.851C53.033 136.6 42.4237 136.341 31.9941 136C29.3069 135.838 26.6364 135.471 24.0063 134.899L23.5253 134.807C19.1168 133.965 16.1667 131.257 14.7583 126.751C12.6194 119.707 11.5495 112.384 11.5838 105.026C11.5604 101.662 11.6086 98.2378 11.6548 94.9242C11.7102 90.4999 11.7752 85.9326 11.6723 81.4345V81.4364Z" fill="black"/>
<path d="M47.7581 90.0999C49.5629 91.7351 51.3663 93.3715 53.1681 95.0086C59.9624 101.176 66.9885 107.553 73.9832 113.733C75.3173 114.989 77.0719 115.706 78.9078 115.745C80.8029 115.699 82.6108 114.944 83.9716 113.63C85.9233 111.888 87.6089 109.871 88.9743 107.643C94.2073 98.9167 99.3668 89.9523 104.357 81.2832L105.035 80.1059C105.344 79.49 105.536 78.8224 105.601 78.1372C105.644 77.8665 105.685 77.5946 105.746 77.3349C105.776 77.2054 105.767 77.07 105.719 76.9463C105.672 76.822 105.588 76.7145 105.479 76.6381L104.748 76.1278C104.639 76.0514 104.509 76.0093 104.375 76.0067C104.241 76.0048 104.11 76.0423 103.998 76.1148C103.71 76.302 103.412 76.4768 103.111 76.6517C102.398 77.0357 101.728 77.4981 101.117 78.0291C95.5297 83.1961 90.5941 89.0204 86.4192 95.3731C85.9917 96.0298 85.5264 96.6864 85.0754 97.3211C85.0754 96.7991 85.0754 96.2772 85.0754 95.7552L85.0454 84.9633C85.0018 68.9708 84.9523 52.9782 84.8964 36.986C84.886 35.6278 84.7688 34.2719 84.5469 32.9317C84.4981 32.4398 84.3491 31.963 84.1102 31.5297C83.8714 31.0964 83.5466 30.7157 83.1562 30.4103C82.8978 30.2429 82.6069 30.1324 82.3023 30.086C81.9977 30.0395 81.6867 30.0581 81.3899 30.1409C80.2875 30.4155 79.4375 31.5944 78.6813 32.8268C78.3702 33.4586 78.2355 34.1617 78.2908 34.8631C78.2908 35.0483 78.2876 35.2314 78.2778 35.4076C78.1516 37.6322 78.0188 39.8554 77.8802 42.0775C77.5548 47.3876 77.2209 52.8742 77.0341 58.2815C76.6944 68.195 76.4263 78.2771 76.1679 88.0264C76.0436 92.7129 75.9167 97.3994 75.7866 102.085C75.7703 102.436 75.7352 102.787 75.6818 103.134C75.6714 103.126 75.6603 103.118 75.6493 103.11C75.1006 102.713 74.6672 102.398 74.2553 102.053C71.3241 99.5921 68.3955 97.132 65.4695 94.6712C61.5153 91.3465 57.5588 88.0231 53.6003 84.7011C53.4051 84.5372 53.2066 84.3604 53.0075 84.183C52.2837 83.4079 51.3752 82.8263 50.3659 82.4928C49.656 82.327 48.9201 82.3024 48.2005 82.4197C47.481 82.5369 46.7917 82.7946 46.1721 83.1773C44.7345 84.2523 44.6376 86.1348 45.9242 87.9752C46.4544 88.7491 47.0694 89.4614 47.7581 90.0999Z" fill="black"/>
</g>
<defs>
<clipPath id="clip0">
<rect width="164" height="147" fill="white" transform="translate(0.777344)"/>
</clipPath>
</defs>
</svg>

<svg xmlns="http://www.w3.org/2000/svg" width="165" height="147" fill="none" viewBox="0 0 165 147"><g fill="#000" clip-path="url(#a)"><path d="M163.637 89.624c-.568-13.544-1.144-25.372-1.763-36.159-.424-7.397-1.029-17.132-1.953-26.829-1.342-14.15-12.78-24.39-27.815-24.904-11.128-.381-22.452-.54-33.407-.695-3.124-.043-6.296-.016-9.364.01-5.034.042-10.24.087-15.333-.182C62.433.259 50.166.765 34.24 2.517c-10.362 1.14-18.157 4.171-24.54 9.54-5.26 4.424-7.825 9.555-7.838 15.687a169 169 0 0 1-.119 5.949c-.065 1.736-.185 3.51-.3 5.227a85 85 0 0 0-.26 11.05q.146 2.304.299 4.608c.79 12.036 1.608 24.479.78 36.76-.341 5.066-.248 10.232-.158 15.224l.02 1.105c.152 8.57 1.411 16.102 3.851 23.027 2.632 7.471 7.741 12.016 15.187 13.504a89.5 89.5 0 0 0 13.982 1.76c8.748.356 17.646.554 26.251.745q5.249.118 10.496.244h.012a.57.57 0 0 0 .326-.109h9.708l3.67.006c14.492.03 29.472.059 44.1-2.222 5.1-.796 11.059-1.907 16.58-4.115 11.078-4.431 17.056-12.599 17.767-24.279.455-7.508.112-15.065-.223-22.374q-.1-2.115-.193-4.23M11.672 81.436c-.182-7.839-.579-16.27-1.25-26.532-.53-8.104-.853-18.788 1.386-29.617a1.2 1.2 0 0 0 .066-.46c-.517-6.083 3.846-8.466 8.466-10.988l.16-.087c4.482-2.447 9.445-3.302 14.145-3.96A231 231 0 0 1 66.91 7.847c4.495 0 8.928.075 13.276.165 7.906.166 15.945.274 23.717.377 6.784.091 13.797.185 20.696.317 3.196.039 6.386.31 9.543.812 11.348 1.881 17.625 9.224 18.15 21.232.432 9.858.829 19.88 1.212 29.577q.433 10.919.882 21.838c.11 2.624.26 5.29.406 7.867.229 4.047.466 8.232.549 12.345.1 4.871-.171 9.849-.455 14.531-.417 6.826-4.409 11.675-11.862 14.412a70.5 70.5 0 0 1-14.081 3.345c-16.156 2.396-32.74 2.289-48.774 2.188l-2.118-.015c-.832-.005-1.663 0-2.495 0h-1.184a.67.67 0 0 0-.537.27q-5.272-.133-10.543-.258c-10.26-.251-20.87-.51-31.299-.851a52.4 52.4 0 0 1-7.988-1.101l-.48-.092c-4.41-.842-7.36-3.55-8.768-8.056a73.6 73.6 0 0 1-3.174-21.725c-.024-3.364.025-6.788.07-10.102.056-4.424.121-8.991.018-13.49z"/><path d="M47.758 90.1a5197 5197 0 0 1 5.41 4.909c6.794 6.167 13.82 12.544 20.815 18.724a7.4 7.4 0 0 0 4.925 2.012 7.55 7.55 0 0 0 5.064-2.115 26.8 26.8 0 0 0 5.002-5.987c5.233-8.726 10.393-17.69 15.383-26.36l.678-1.177a5.6 5.6 0 0 0 .566-1.969c.043-.27.084-.542.145-.802a.66.66 0 0 0-.267-.697l-.731-.51a.67.67 0 0 0-.75-.013c-.288.187-.586.362-.887.537-.713.384-1.383.846-1.994 1.377a93.8 93.8 0 0 0-14.698 17.344 59 59 0 0 1-1.344 1.948v-1.566l-.03-10.792q-.065-23.988-.149-47.977a26 26 0 0 0-.35-4.054 3.65 3.65 0 0 0-1.39-2.522 2.17 2.17 0 0 0-1.766-.27c-1.103.276-1.953 1.454-2.709 2.687a3.9 3.9 0 0 0-.39 2.036q.001.279-.013.545-.19 3.336-.398 6.67c-.325 5.31-.66 10.796-.846 16.203-.34 9.914-.608 19.996-.866 29.745q-.186 7.03-.381 14.059a10 10 0 0 1-.105 1.049l-.033-.024a25 25 0 0 1-1.394-1.057q-4.396-3.69-8.785-7.382-5.932-4.987-11.87-9.97a27 27 0 0 1-.593-.518 6.3 6.3 0 0 0-2.641-1.69 5.58 5.58 0 0 0-4.194.684c-1.437 1.075-1.534 2.958-.248 4.798.53.774 1.145 1.486 1.834 2.125"/></g><defs><clipPath id="a"><path fill="#fff" d="M.777 0h164v147h-164z"/></clipPath></defs></svg>
